X:16101
T:Reed's Fortune
C:David Linton <djl@colourcountry.net>
M:6/8
K:G
P:A
DGB cde dcB A2G |1,3 BcB AGA BGE EFG :|2,4 BcB AGE DEF G :| Bd ||
P:B
e2e dBG ABc dBG |1,3 ABc dBG EFG DGB :|2,4 BcB AGA BGE EFG :|

